X: 26
T: Gavotte
C: Armand Aromin
H: 3//05
M: 2/4
L: 1/8
R: Gavotte
K: Amin
Ae ce | Ae c/2B/2A/2c/2 | Ae ce | d/2c/2B/2d/2 cB :|
AA/2B/2 cA | ce cB | AA/2B/2 cA | BG A2 :|
